X:1
T:Panama Exposition
T:Panama Exposition
T:Rondo-Two Step
T:By J. G. BISHOP
T:Copyright 1915 by J. G. Bishop
T:Copyright 1915 by J. G. Bishop
T:Copyright 1915 by J. G. Bishop
C:By J. O. BISHOP
Z:Copyright 1915 by J. G. Bishop
%%score { ( 1 4 ) | ( 2 3 ) }
L:1/8
Q:1/4=90
M:2/4
K:Bb
V:1 treble nm="Piano" snm="Pno."
V:4 treble 
V:2 bass 
V:3 bass 
V:1
"^Giocoso"!f! g/f/e/c/ AF | !>![EGd]2 !>![EAc]2 |!<(! B/d/g/b/ [c=ea][Beg]!<)! | %3
 [Af]2 !^![fac'f'] z |!mf! g'/f'/e'/c'/ a/f/e/c/ | AF [dd'][cc'] |{/d} cB [dd'][Bb] | [Ff]2 GF | %8
{/G} !^!FE [cc'][Aa] | [Ff]2 AG |{/A} !^!GF [dd'][Bb] | [Ff]2 c'b | g'/f'/e'/c'/ a/f/e/c/ | %13
 AF [dd'][cc'] |{/d} cB [dd'][Bb] | [Ff]2 ba | g/a/g/^f/ g!^![ee'] | =f/g/f/=e/ f!^![dd'] | %18
 c'/d'/c'/g/ af | b z x2 ||!mf! x4 | x4 | x4 | [B,DF]3 f |{/g} fe [=B,=B][Dd] | [Cc]3 g | %26
{/a} gf [^C^c][!courtesy!_E!courtesy!_e] | [Dd]2 x2 | x4 | x4 | x4 | [B,DF]2 [Gg]>[Aa] | %32
 [Bb][gg'] [ff'][dd'] | [cc'][Gg][Aa][Ff] | [Bdb]4- | [Bdb] z !^![Bdfb] z || %36
[K:Eb]!p! (b/a/f/d/ B/A/F/D/) | (C_C B,B) | (c/B/G/E/ C_C |x)ED_D | C/=B,/C/D/ EC | B,G FE | %42
!<(! [EF][EG] [E=A][EB]!<)! |!>(! ([DB][Fd] [Bf][db])!>)! | (b/a/f/d/ B/A/F/D/) | (C_C B,B) | %46
 (c/B/G/E/ C_C |x)ED_D | C/=B,/C/D/ EC | B,G FE | FC DB, | E!<(! !>![B,B]!>![Cc]!>![Dd]!<)! || %52
!f! [Ee]2 z [Gg] | [Bb][Gg][Ff][Ee] | [Aa]2 z [cc'] | [ee']2 z [cc'] | [Bb]3 [cc'] | %57
 [Bb][Gg][Ff][Ee] | F/G/F/E/ DC | B, !>![Aa]!>![Gg]!>![Ff] | [Ee]2 z [Gg] | [Bb][Gg][Ff][Ee] | %62
 [Aa]2 z [cc'] | [ee']2 z [cc'] | [Bb]3 [cc'] | [Bb][Gg][Ff][Ee] | F/G/F/C/ DB, | %67
 E z !>![=B,FG]2 ||!mf! c/d/c/d/ eg | fa ge | c/d/c/d/ eg | !^![Ge]!^![Fd] !^![Fd]2 | c/d/c/d/ eg | %73
 fa ge | fa ge | c z !>![DABd]2 || [Ee]2 z [Gg] | [Bb][Gg][Ff][Ee] | [Aa]2 z [cc'] | %79
 [ee']2 z [cc'] | [Bb]3 [cc'] | [Bb][Gg][Ff][Ee] | F/G/F/E/ DC | B, !>![Aa]!>![Gg]!>![Ff] | %84
 [Ee]2 z [Gg] | [Bb][Gg][Ff][Ee] | [Aa]2 z [cc'] | [ee']2 z [cc'] | [Bb]3 [cc'] | %89
 [Bb][Gg][Ff][Ee] | F/G/F/C/ DB, | E z !^![EGBe] z |] %92
V:2
 G/F/E/C/ A,F, | !>![F,B,]2 !>![^F,A,]2 | [G,D]2 [C,C][C,C] | [F,C]2 !^![F,,F,] z | %4
 C,[F,A,E] F,,[F,A,E] | C,[F,A,E] F,,[F,A,E] | B,,[F,B,D] F,,[F,B,D] | B,,[F,B,D] F,,[F,B,D] | %8
 A,,[F,A,E] F,,[F,A,E] | A,,[F,A,E] F,,[F,A,E] | B,,[F,B,D] F,,[F,B,D] | B,,[F,B,D] D,[F,B,D] | %12
 C,[F,A,E] F,,[F,A,E] | C,[F,A,E] F,,[F,A,E] | B,,[F,B,D] F,,[F,B,D] | B,,[F,B,D] D,[F,B,D] | %16
 E,[G,C] E,[G,C] | D,[F,B,] D,[F,B,] | G,[B,C=E] F,[A,C_E] | %19
 [B,D] z"^marc\nR.H.\n" F,/^F,/G,/^G,/ || A,"^R.H.\n"F G,E | F,D E,C | %22
 D,B, [B,D]>[I:staff -1][B,EG] |[I:staff +1] B,,D,/G,/ F,2 | C,[E,F,A,] F,,[E,F,A,] | %25
 C,[E,F,A,] F,,[E,F,A,] | B,,[D,F,B,] F,,[D,F,B,] | B,,[D,F,B,] F,/^F,/G,/^G,/ | A,"^R.H.\n"F G,E | %29
 F,D E,C | D,B, [B,D]>[I:staff -1][B,EG] |[I:staff +1] B,,F, [E,G,B,]2 | [D,F,B,]4 | %33
 [G,B,CE]2 [F,A,C_E]2 | [B,,B,][G,,G,][F,,F,][D,,D,] | [B,,,B,,] z !^![B,,,B,,] z || %36
[K:Eb] B,,[A,B,] z [A,B,] | z [F,A,] z [F,A,] | [E,G,][E,G,] [E,A,][E,A,] | %39
 [E,G,][E,,E,] [F,,F,][G,,G,] | A,,[E,A,] =A,,[E,^F,] | B,,[E,G,] C,[G,B,] | =A,B, CA, | %43
 ([B,,F,]B,DF) | B,,[A,B,] z [A,B,] | z [F,A,] z [F,A,] | [E,G,][E,G,] [E,A,][E,A,] | %47
 [E,G,][E,,E,] [F,,F,][G,,G,] | A,,[E,A,] =A,,[E,^F,] | B,,[E,G,] C,[G,B,] | %50
 F,,[F,=A,] B,,[F,_A,] | [E,G,] z z2 || E,[G,B,] B,,[G,B,] | E,[G,B,] B,,[G,B,] | %54
 A,,[E,A,C][A,CE] z | A,,[E,A,C][A,CE] z | E,[G,B,] B,,[G,B,] | E,[G,B,] B,,[G,B,] | %58
 C,[=F,A,] F,,[E,F,] | [B,,D,F,] !>![B,,,B,,]!>![C,,C,]!>![D,,D,] | E,[G,B,] B,,[G,B,] | %61
 E,[G,B,] B,,[G,B,] | A,,[E,A,C][A,CE] z | A,,[E,A,C][A,CE] z | E,[G,B,] B,,[G,B,] | %65
 E,[G,B,] B,,[G,B,] | C,[=F,A,] F,,[F,_A,] | [E,G,] z !>![D,G,]2 || C,[E,G,C] C,[E,G,C] | %69
 C,[F,A,C] C,[E,G,C] | C,[E,G,C] C,[E,G,C] | G,,!^![G,=B,] !^![G,B,]2 | C,[E,G,C] C,[E,G,C] | %73
 C,[F,A,C] C,[E,G,C] | C,[F,A,C] G,,[F,G,=B,] | [C,E,G,C] z !>![_B,,_B,]2 || E,[G,B,] B,,[G,B,] | %77
 E,[G,B,] B,,[G,B,] | A,,[E,A,C][A,CE] z | A,,[E,A,C][A,CE] z | E,[G,B,] B,,[G,B,] | %81
 E,[G,B,] B,,[G,B,] | C,[=F,A,] F,,[E,F,] | [B,,D,F,] !>![B,,,B,,]!>![C,,C,]!>![D,,D,] | %84
 E,[G,B,] B,,[G,B,] | E,[G,B,] B,,[G,B,] | A,,[E,A,C][A,CE] z | A,,[E,A,C][A,CE] z | %88
 E,[G,B,] B,,[G,B,] | E,[G,B,] B,,[G,B,] | C,[=F,A,] F,,[F,_A,] | [E,G,] z !^![E,,E,] z |] %92
V:3
 x4 | x4 | x4 | x4 | x4 | x4 | x4 | x4 | x4 | x4 | x4 | x4 | x4 | x4 | x4 | x4 | x4 | x4 | x4 | %19
 x2 z2 || [F,,F,] z [E,,E,] z | [D,,D,] z [C,,C,] z | [B,,,B,,] z F,,F, | x4 | x4 | x4 | x4 | %27
 x2 z2 | [F,,F,] z [E,,E,] z | [D,,D,] z [C,,C,] z | [B,,,B,,] z F,,F, | x4 | x4 | x4 | x4 | x4 || %36
[K:Eb] x2 (F,2 | E,2 D,2) | x4 | x4 | A,,2 =A,,2 | B,,2 x2 | F,2 F,2 | x4 | x2 (F,2 | E,2 D,2) | %46
 x4 | x4 | A,,2 =A,,2 | B,,2 x2 | x4 | x4 || x4 | x4 | x4 | x4 | x4 | x4 | x4 | x4 | x4 | x4 | x4 | %63
 x4 | x4 | x4 | x4 | x4 || x4 | x4 | x4 | x4 | x4 | x4 | x4 | x4 || x4 | x4 | x4 | x4 | x4 | x4 | %82
 x4 | x4 | x4 | x4 | x4 | x4 | x4 | x4 | x4 | x4 |] %92
V:4
 x4 | x4 | x4 | x4 | x4 | x4 | x4 | x4 | x4 | x4 | x4 | x4 | x4 | x4 | x4 | x4 | x4 | x4 | x4 | %19
 x4 || x4 | x4 | x4 | x4 | x4 | x4 | x4 | x4 | x4 | x4 | x4 | x4 | x4 | x4 | x4 | x4 ||[K:Eb] x4 | %37
 x4 | x4 | B,4 | x4 | x4 | x4 | x4 | x4 | x4 | x4 | B,4 | x4 | x4 | x4 | x4 || x4 | x4 | x4 | x4 | %56
 x4 | x4 | x4 | x4 | x4 | x4 | x4 | x4 | x4 | x4 | x4 | x4 || x4 | x4 | x4 | x4 | x4 | x4 | x4 | %75
 x4 || x4 | x4 | x4 | x4 | x4 | x4 | x4 | x4 | x4 | x4 | x4 | x4 | x4 | x4 | x4 | x4 |] %92

